svgs/thin/hand-back-point-up.svg

<svg xmlns="http://www.w3.org/2000/svg" viewBox="0 0 448 512"><!--! Font Awesome Pro 6.3.0 by @fontawesome - https://fontawesome.com License - https://fontawesome.com/license (Commercial License) Copyright 2023 Fonticons, Inc. --><path d="M316.9 512H194.3c-21.75 0-43.38-5.5-62.53-15.88l-63.41-34.44C45.94 449.5 32 426.1 32 400.6v-77.44c0-21.22 9.5-41.03 26.09-54.31l13.84-11.06c1.471-1.19 3.233-1.768 4.987-1.768c4.256 0 8.008 3.424 8.008 8.019c0 2.35-1.026 4.674-2.995 6.249L68.09 281.3C55.31 291.5 48 306.8 48 323.1v77.44c0 19.66 10.72 37.72 28 47.06l63.41 34.44C156.2 491.2 175.2 496 194.3 496h122.6C380.4 496 432 444.4 432 380.9V278.2C432 257.1 414.9 240 393.8 240h-15.28c-.0313 0-2.312 .25-2.312 .25c-.3202 .049-.64 .0728-.9579 .0728c-3.126 0-6.058-2.296-7.136-5.417C362.7 219.1 347.9 208 332.3 208h-15.38c-14.78 0-17.63 5.526-22.65 5.526c-2.65 0-5.213-1.305-6.729-3.713C280.5 198.7 268.4 192 255.4 192h-8.594c-19.47 0-23.64 11.99-30.78 11.99C212.5 203.1 208 201.3 208 195.1V56c0-22.06-17.94-40-40-40S128 33.94 128 56v288C128 348.4 124.4 352 120 352S112 348.4 112 344v-288C112 25.12 137.1 0 167.1 0S224 25.12 224 56v125.1C231.1 177.8 238.9 176 246.8 176h8.594c16.22 0 31.28 7.188 41.5 19.5C303 193.2 309.7 192 316.9 192h15.38c20.69 0 39.56 12.62 48.66 32h12.88C423.7 224 448 248.3 448 278.2v102.8C448 453.2 389.2 512 316.9 512z"/></svg>

<svg xmlns="http://www.w3.org/2000/svg" viewBox="0 0 448 512"><!-- Font Awesome Pro 6.0.0-alpha2 by @fontawesome - https://fontawesome.com License - https://fontawesome.com/license (Commercial License) --><path d="M316.938 512H194.312C172.562 512 150.937 506.5 131.781 496.125L68.375 461.687C45.938 449.531 32 426.125 32 400.562V323.125C32 301.906 41.5 282.094 58.094 268.812L71.938 257.75C73.408 256.56 75.171 255.982 76.924 255.982C81.18 255.982 84.932 259.406 84.932 264.001C84.932 266.351 83.907 268.675 81.938 270.25L68.094 281.312C55.312 291.531 48 306.781 48 323.125V400.562C48 420.219 58.719 438.281 76 447.625L139.406 482.062C156.219 491.188 175.219 496 194.312 496H316.937C380.375 496 432 444.375 432 380.938V278.156C432 257.125 414.875 240 393.844 240H378.562C378.531 240 376.25 240.25 376.25 240.25C375.93 240.299 375.61 240.323 375.292 240.323C372.166 240.323 369.234 238.026 368.156 234.906C362.656 219.062 347.906 208 332.312 208H316.937C302.153 208 299.303 213.526 294.291 213.526C291.642 213.526 289.078 212.221 287.562 209.813C280.469 198.656 268.438 192 255.375 192H246.781C227.314 192 223.137 203.986 215.996 203.986C212.527 203.986 208 201.293 208 195.969V56C208 33.938 190.062 16 168 16S128 33.938 128 56V344C128 348.406 124.406 352 120 352S112 348.406 112 344V56C112 25.125 137.125 0 168 0S224 25.125 224 56V181.125C231.125 177.781 238.875 176 246.781 176H255.375C271.594 176 286.656 183.188 296.875 195.5C303 193.188 309.688 192 316.938 192H332.313C353 192 371.875 204.625 380.969 224H393.844C423.719 224 448 248.281 448 278.156V380.938C448 453.219 389.219 512 316.938 512Z"/></svg>
